SVG-Logos/Frameworks-Languages-IDEs/Process/prplx master/qwik.svg

<svg viewBox="0 0 167 53" fill="none" xmlns="http://www.w3.org/2000/svg" role="img"
  aria-label="Qwik Logo" width="130" height="44" class="qwik-logo">
  <path
    d="M81.9545 46.5859H75.5513V35.4045C73.4363 36.8579 71.0496 37.5749 68.4884 37.5749C65.0151 37.5749 62.4344 36.6253 60.8239 34.6487C59.2134 32.6915 58.3984 29.2034 58.3984 24.2231C58.3984 19.1266 59.3492 15.5997 61.2702 13.5456C63.23 11.4721 66.3734 10.4644 70.7004 10.4644C74.7946 10.4644 78.5201 11.0264 81.9545 12.131V46.5859ZM75.5513 16.278C74.096 15.8323 72.4661 15.6191 70.7004 15.6191C68.5272 15.6191 66.9749 16.1811 66.1017 17.3244C65.2479 18.4871 64.7823 20.6962 64.7823 23.9712C64.7823 27.0524 65.1897 29.1065 66.0435 30.2304C66.8973 31.335 68.3719 31.897 70.5452 31.897C73.3781 31.897 75.5513 30.7343 75.5513 29.2809V16.278Z"
    fill="currentColor"></path>
  <path
    d="M91.133 11.1426C93.4033 17.4406 95.3242 23.7386 96.993 30.0948C99.205 23.5836 101.087 17.2856 102.542 11.1426H108.15C110.265 17.4406 112.031 23.7386 113.447 30.0948C115.97 23.196 117.949 16.8787 119.404 11.1426H125.71C123.033 20.173 120.064 28.777 116.785 36.8966H109.256C108.402 32.3039 107.044 26.7617 105.22 20.1536C104.056 25.2889 102.445 30.8893 100.33 36.8966H92.8018C90.2793 27.5174 87.5434 18.9522 84.6328 11.1426H91.133Z"
    fill="currentColor"></path>
  <path
    d="M132.832 7.55758C129.999 7.55758 129.203 6.85996 129.203 3.97257C129.203 1.39523 130.018 0.794495 132.832 0.794495C135.665 0.794495 136.46 1.39523 136.46 3.97257C136.46 6.85996 135.665 7.55758 132.832 7.55758ZM129.649 11.1426H136.053V36.8966H129.649V11.1426Z"
    fill="currentColor"></path>
  <path
    d="M166.303 11.1426C161.763 17.5956 158.581 21.5295 156.815 22.9441C158.27 23.8937 162.17 28.8933 167.002 36.916H159.628C153.613 27.7887 150.742 23.8549 149.325 23.2542V36.916H142.922V0H149.325V23.2348C150.78 22.169 153.963 18.1382 158.872 11.1426H166.303Z"
    fill="currentColor"></path>
  <path
    d="M40.973 52.5351L32.0861 43.6985L31.9503 43.7179V43.621L13.0511 24.9595L17.708 20.4637L14.9721 4.76715L1.99103 20.8513C-0.220992 23.0798 -0.628467 26.7036 0.962635 29.3778L9.07337 42.8265C10.3152 44.9 12.566 46.1402 14.9915 46.1208L19.0081 46.082L40.973 52.5351Z"
    fill="#18B6F6"></path>
  <path
    d="M45.8232 20.5411L44.038 17.2468L43.1066 15.5609L42.738 14.902L42.6992 14.9408L37.8094 6.47238C36.587 4.34075 34.2974 3.02301 31.8137 3.04239L27.5255 3.15865L14.7384 3.19741C12.313 3.21679 10.101 4.49577 8.87853 6.56927L1.09766 21.9945L15.0101 4.72831L33.2496 24.7656L30.0091 28.0406L31.9495 43.7178L31.9689 43.679V43.7178H31.9301L31.9689 43.7565L33.4824 45.2293L40.8364 52.4187C41.1469 52.7094 41.6514 52.3606 41.4379 51.9924L36.8975 43.0589L44.8142 28.4282L45.0664 28.1375C45.1634 28.0212 45.2604 27.905 45.3381 27.7887C46.8904 25.6764 47.1038 22.8472 45.8232 20.5411Z"
    fill="#AC7EF4"></path>
  <path
    d="M33.3076 24.6882L15.0099 4.74774L17.61 20.3668L12.9531 24.882L31.9105 43.6985L30.203 28.0794L33.3076 24.6882Z"
    fill="white"></path>
</svg>

<svg xmlns="http://www.w3.org/2000/svg" fill="none" aria-label="Qwik Logo" class="qwik-logo" viewBox="0 0 167 53"><path fill="currentColor" d="M81.954 46.586h-6.403V35.405c-2.115 1.453-4.501 2.17-7.063 2.17-3.473 0-6.054-.95-7.664-2.926-1.61-1.958-2.426-5.446-2.426-10.426 0-5.096.951-8.623 2.872-10.677 1.96-2.074 5.103-3.082 9.43-3.082 4.095 0 7.82.562 11.254 1.667v34.455Zm-6.403-30.308c-1.455-.446-3.085-.659-4.85-.659-2.174 0-3.726.562-4.6 1.705-.853 1.163-1.319 3.372-1.319 6.647 0 3.081.408 5.136 1.261 6.26.854 1.104 2.329 1.666 4.502 1.666 2.833 0 5.006-1.163 5.006-2.616V16.278ZM91.133 11.143c2.27 6.298 4.191 12.596 5.86 18.952 2.212-6.511 4.094-12.81 5.549-18.952h5.608a187.507 187.507 0 0 1 5.297 18.952c2.523-6.899 4.502-13.216 5.957-18.952h6.306c-2.677 9.03-5.646 17.634-8.925 25.754h-7.529c-.854-4.593-2.212-10.135-4.036-16.743-1.164 5.135-2.775 10.735-4.89 16.743h-7.528c-2.523-9.38-5.259-17.945-8.17-25.754h6.501ZM132.832 7.558c-2.833 0-3.629-.698-3.629-3.585 0-2.578.815-3.179 3.629-3.179 2.833 0 3.628.601 3.628 3.179 0 2.887-.795 3.585-3.628 3.585Zm-3.183 3.585h6.404v25.754h-6.404V11.143ZM166.303 11.143c-4.54 6.453-7.722 10.386-9.488 11.801 1.455.95 5.355 5.95 10.187 13.972h-7.374c-6.015-9.127-8.886-13.061-10.303-13.662v13.662h-6.403V0h6.403v23.235c1.455-1.066 4.638-5.097 9.547-12.092h7.431Z"/><path fill="#18B6F6" d="M40.973 52.535 32.086 43.7l-.136.019v-.097L13.051 24.959l4.657-4.495-2.736-15.697L1.991 20.851C-.221 23.08-.629 26.704.963 29.378l8.11 13.449c1.242 2.073 3.493 3.313 5.918 3.294l4.017-.039 21.965 6.453Z"/><path fill="#AC7EF4" d="m45.823 20.541-1.785-3.294-.931-1.686-.369-.659-.039.039-4.89-8.469a6.846 6.846 0 0 0-5.995-3.43l-4.288.117-12.788.038a6.847 6.847 0 0 0-5.86 3.372l-7.78 15.425L15.01 4.729l18.24 20.038-3.24 3.275 1.94 15.677.019-.039v.039h-.039l.039.038 1.513 1.473 7.354 7.19c.31.29.815-.058.602-.427l-4.54-8.933 7.916-14.63.252-.291c.097-.117.194-.233.272-.35 1.552-2.112 1.766-4.94.485-7.247Z"/><path fill="#fff" d="M33.308 24.688 15.01 4.748l2.6 15.619-4.657 4.515L31.91 43.699l-1.707-15.62 3.105-3.39Z"/></svg>
